X: 3456
T: Betty Black
R: barndance
M: 4/4
K: Gmajor
|:B/|c>BA>G B2 g2|c>BA>G A2 D2|c>BA>G B2 g2|A2 A2 G2- G3/2:|
K: D Major
d/|:f>ef>g a2 A2|B>AB>c d2 A2|f>ef>g a2 A2|B2 c2 d4:|
|:E2 E>F G>FE>D|F>EF>D d>AF>D|E2 E>F G>FE>F|D2 d2 d4:|
{e/}f4 f2- f>g|e2 A2 d2 e2|f4 f2- f>a|e2 A2 d2- d>e|
{e/}f4 f2- f>f|e>de>f e2 A2|f>ef>g a2 A2|B2 c2 d2||
|:a>g|f2 d2 d2 A>G|F>GA>F D2 a>g|f2 d2 d2 A>G|1 F>GA>F D2:|2 F>GA>F D2- D3/2||
g/|f>aa>^g a>=gf>f|g>fe>c d>cB>A|f<aa>^g a>=g f2|g>fe>c a2- a>g|
f>aa>^g a>=g f2|g<fe>c d>cB>A|f<aa>^g a>=gf>f|g>fe>c d2- d3/2||

